X:37
T:Lady's Favourite. Ru1.037, The
%%VWML:RutherfordVol1-2248-p19-0p19
Z:Transcription by Village Music Project, Steve Mansfield July 2015
F:http://www.village-music-project.org.uk/
F:http://www.vwml.org/record/RutherfordVol1/2248/p19
L:1/8
W:The first Cou. foot it to the 2d Wo. & Hands round
W:three .| The same to the 2d Man :| Cross over two
W:Cou. lead up to the Top foot it & cast off :||: Hands
W:round 4 at Bottom .|| R[igh]t Hand & Left at Top :||
Q:1/4=100
N:NB 'The Lady's Favourite' in Mss index, but could be mistaken for 'The Laay's Favourite' on Mss page
K:A
c2 (c/B/)A | d2 (d/c/)B | c2 (c/B/)A | GB B2 |
c2 (c/B/)A | d2 (d/c/)B | (c/d/e) (f/g/a) | cA A2 :|
|: a2 (a/g/f) | g2 (g/f/e) | f2 (f/e/d) | ce e2 |
a2 (a/g/f) | g2 (g/f/e) | (c/d/e) (f/g/a) | cA A2 :|
|: cAfd | ecdB | cAdB | GB B2 |
cAfd | ecdB | c/d/e f/g/a | cA A2 :|
T:Hungarian March. Ru1.038, The
B:Rutherford's Country Dances Vol 1, 1756
Z:village music project, Steve Mansfield July 2015
M:2/4
L:1/8
R:March
W:The first Cou. gallops down the Middle the Man brings
W:the 3d Wo. up & leave his Partner in her Place .| Then
W:gallop down again leave the 3d Wo. in her Place and
W:bring your own Partner up Cross over figure in .|.
W:And R[igh]t Hand & Left :|
Q:1/4=100
K:D
|:A | dd/f/ ee/g/ | fa a2 | fe/d/ fe/d/ | e2 AA |
dd/f/ ee/g/ | fa a2 | fe/d/ ed/c/ | d2 D :|
|: e | ff/a/ eA/g/ | ff/a/ eA/g/ | fe/d/ fe/d/ | e2 Ae |
ff/a/ eA/g/ | ff/a/ eA/g/ | fe/d/ ed/c/ | d2 D :|
